femmes/public/img/illustrations/slide8/green-whistle.svg

<?xml version="1.0" encoding="UTF-8" standalone="no"?>
<svg
   width="249"
   height="203"
   viewBox="0 0 249 203"
   fill="none"
   version="1.1"
   id="svg737"
   sodipodi:docname="green-whistle.svg"
   inkscape:version="1.1.2 (0a00cf5339, 2022-02-04)"
   xmlns:inkscape="http://www.inkscape.org/namespaces/inkscape"
   xmlns:sodipodi="http://sodipodi.sourceforge.net/DTD/sodipodi-0.dtd"
   xmlns="http://www.w3.org/2000/svg"
   xmlns:svg="http://www.w3.org/2000/svg">
  <sodipodi:namedview
     id="namedview739"
     pagecolor="#ffffff"
     bordercolor="#666666"
     borderopacity="1.0"
     inkscape:pageshadow="2"
     inkscape:pageopacity="0.0"
     inkscape:pagecheckerboard="0"
     showgrid="false"
     inkscape:zoom="1.2414286"
     inkscape:cx="134.9252"
     inkscape:cy="168.35443"
     inkscape:window-width="1916"
     inkscape:window-height="1053"
     inkscape:window-x="0"
     inkscape:window-y="0"
     inkscape:window-maximized="1"
     inkscape:current-layer="svg737" />
  <g
     clip-path="url(#clip0_187_161)"
     id="g730"
     transform="translate(0,-64)">
    <path
       d="m 157.018,169.845 c -23.427,-17.446 -56.557,-12.605 -74.0034,10.821 -0.7821,1.051 -1.5033,2.126 -2.196,3.212 l -29.0417,-7.956 -9.0389,32.993 30.041,8.23 c 1.3447,14.403 8.5542,28.202 21.0709,37.523 23.4191,17.441 56.5491,12.6 73.9951,-10.827 l 30.173,22.47 51.423,-27.636 -92.422,-68.829 z m -107.1454,33.782 5.1996,-19.473 11.5717,3.089 -5.1996,19.473 z"
       fill="#49b170"
       id="path695" />
    <mask
       id="mask0_187_161"
       maskUnits="userSpaceOnUse"
       x="42"
       y="159"
       width="208"
       height="108">
      <path
         d="m 157.018,169.845 c -23.427,-17.446 -56.557,-12.605 -74.0034,10.821 -0.7821,1.051 -1.5033,2.126 -2.196,3.212 l -29.0417,-7.956 -9.0389,32.993 30.041,8.23 c 1.3447,14.403 8.5542,28.202 21.0709,37.523 23.4191,17.441 56.5491,12.6 73.9951,-10.827 l 30.173,22.47 51.423,-27.636 -92.422,-68.829 z m -107.1454,33.782 5.1996,-19.473 11.5717,3.089 -5.1996,19.473 z"
         fill="#ffffff"
         id="path697" />
    </mask>
    <g
       mask="url(#mask0_187_161)"
       id="g708">
      <path
         d="m 200.932,288.938 -15.196,-29.405 57.216,-29.569 45.744,14.573 z m -9.995,-27.748 11.667,22.576 75.933,-38.414 -35.233,-11.225 z"
         fill="#000000"
         id="path700" />
      <path
         d="m 231.664,240.575 -39.209,-29.199 -2.305,3.095 39.208,29.2 z"
         fill="#000000"
         id="path702" />
      <path
         d="m 98.0254,235.373 c -10.383,-7.733 -16.4844,-20.646 -14.874,-34.402 2.3997,-20.497 21.0276,-35.222 41.5256,-32.823 9.93,1.162 18.812,6.12 25.012,13.965 6.199,7.844 8.973,17.633 7.811,27.561 -1.161,9.93 -6.121,18.813 -13.964,25.012 -7.843,6.2 -17.631,8.974 -27.561,7.811 -6.742,-0.788 -12.86,-3.334 -17.9496,-7.124 z M 140.34,178.355 c -4.665,-3.474 -10.18,-5.679 -16.112,-6.374 -18.384,-2.152 -35.0913,11.055 -37.243,29.439 -1.0423,8.906 1.4456,17.685 7.0068,24.719 5.5591,7.033 13.5272,11.482 22.4322,12.525 8.905,1.042 17.684,-1.447 24.719,-7.007 7.034,-5.56 11.481,-13.527 12.524,-22.433 1.042,-8.905 -1.445,-17.684 -7.006,-24.718 -1.857,-2.349 -3.983,-4.409 -6.321,-6.151 z"
         fill="#000000"
         id="path704" />
      <path
         d="M 91.8098,258.026 C 66.6333,239.277 61.4037,203.54 80.1537,178.363 c 18.75,-25.178 54.4863,-30.407 79.6643,-11.657 25.177,18.75 30.406,54.487 11.656,79.664 -18.75,25.178 -54.487,30.406 -79.6642,11.656 z m 65.7022,-88.224 c -23.47,-17.478 -56.784,-12.604 -74.2626,10.866 -17.4786,23.47 -12.6042,56.784 10.8659,74.263 23.4697,17.478 56.7837,12.604 74.2627,-10.866 17.479,-23.47 12.604,-56.784 -10.866,-74.263 z"
         fill="#000000"
         id="path706" />
    </g>
    <path
       d="M 16.0972,205.053 -101.197,117.701 c -9.266,-6.9 -11.189,-20.0509 -4.29,-29.3156 L -85.4589,61.4923 C -69.6684,40.2891 -39.572,35.8855 -18.368,51.6765 l 31.7913,23.6756 c 12.4857,9.2983 21.7378,22.0034 26.7554,36.7419 l 20.5779,60.438 c 3.0702,9.017 1.5061,18.96 -4.1832,26.6 -9.5265,12.792 -27.6838,15.449 -40.476,5.922 z M -20.6734,54.7722 c -19.496,-14.519 -47.1708,-10.4704 -61.6904,9.0263 l -20.0282,26.8931 c -5.628,7.5582 -4.059,18.2864 3.4996,23.9144 l 117.2937,87.351 c 11.0849,8.255 26.8197,5.953 35.0749,-5.132 4.9296,-6.619 6.2843,-15.237 3.6254,-23.05 L 36.5237,113.337 C 31.7582,99.3415 22.973,87.2777 11.1165,78.448 L -20.6748,54.7724 Z"
       fill="#000000"
       id="path710" />
    <mask
       id="mask1_187_161"
       maskUnits="userSpaceOnUse"
       x="50"
       y="168"
       width="21"
       height="22">
      <path
         d="m 69.5081,171.532 c -5.6284,-5.33 -15.3217,-4.366 -18.1969,3.088 -2.2387,5.804 1.3364,11.758 6.8633,13.977 4.3737,1.756 7.2048,-2.097 10.2802,-5.629 3.2974,-3.787 2.0402,-8.575 1.0534,-11.436 0.987,2.862 -5.6284,-5.33 0,0 z"
         fill="#ffffff"
         id="path712" />
    </mask>
    <g
       mask="url(#mask1_187_161)"
       id="g728">
      <path
         d="M 16.0971,205.053 -101.197,117.701 c -9.266,-6.9 -11.189,-20.051 -4.29,-29.3157 L -85.459,61.4922 C -69.6686,40.289 -39.5721,35.8854 -18.3681,51.6764 L 13.4231,75.352 c 12.4858,9.2984 21.7379,22.0034 26.7554,36.742 l 20.5779,60.438 c 3.0702,9.017 1.5061,18.96 -4.1831,26.6 -9.5266,12.792 -27.6838,15.449 -40.476,5.922 z M -20.6736,54.7721 c -19.4959,-14.519 -47.1707,-10.4704 -61.6903,9.0263 l -20.0281,26.8931 c -5.628,7.5582 -4.059,18.2865 3.4994,23.9145 l 117.2938,87.351 c 11.0849,8.255 26.8197,5.953 35.0749,-5.132 4.9296,-6.619 6.2843,-15.237 3.6254,-23.05 L 36.5236,113.337 C 31.7581,99.3414 22.9729,87.2777 11.1164,78.4479 L -20.6749,54.7723 Z"
         fill="#000000"
         id="path715" />
      <path
         d="m 157.018,169.845 c -23.427,-17.446 -56.557,-12.605 -74.0035,10.821 -0.7821,1.051 -1.5034,2.126 -2.196,3.212 l -29.0417,-7.956 -9.039,32.993 30.041,8.23 c 1.3448,14.403 8.5543,28.202 21.071,37.523 23.4192,17.441 56.5492,12.6 73.9952,-10.827 l 30.172,22.47 51.424,-27.637 -92.423,-68.828 z m -107.1456,33.782 5.1997,-19.474 11.5717,3.09 -5.1997,19.473 z"
         fill="#49b170"
         id="path717" />
      <mask
         id="mask2_187_161"
         maskUnits="userSpaceOnUse"
         x="42"
         y="159"
         width="208"
         height="108">
        <path
           d="m 157.018,169.845 c -23.427,-17.446 -56.557,-12.605 -74.0035,10.821 -0.7821,1.051 -1.5034,2.126 -2.196,3.212 l -29.0417,-7.956 -9.039,32.993 30.041,8.23 c 1.3448,14.403 8.5543,28.202 21.071,37.523 23.4192,17.441 56.5492,12.6 73.9952,-10.827 l 30.172,22.47 51.424,-27.637 -92.423,-68.828 z m -107.1456,33.782 5.1997,-19.474 11.5717,3.09 -5.1997,19.473 z"
           fill="#ffffff"
           id="path719" />
      </mask>
      <g
         mask="url(#mask2_187_161)"
         id="g726">
        <path
           d="m 98.0253,235.373 c -10.383,-7.733 -16.4844,-20.646 -14.874,-34.402 2.3997,-20.497 21.0277,-35.222 41.5247,-32.823 9.931,1.162 18.813,6.12 25.013,13.965 6.199,7.844 8.973,17.633 7.811,27.561 -1.161,9.93 -6.121,18.813 -13.964,25.012 -7.843,6.2 -17.631,8.974 -27.561,7.811 -6.742,-0.788 -12.86,-3.334 -17.9497,-7.124 z M 140.34,178.355 c -4.665,-3.474 -10.18,-5.679 -16.112,-6.374 -18.384,-2.152 -35.0914,11.055 -37.2431,29.439 -1.0423,8.906 1.4456,17.685 7.0068,24.719 5.5591,7.033 13.5273,11.481 22.4323,12.525 8.905,1.042 17.684,-1.447 24.719,-7.007 7.034,-5.56 11.481,-13.527 12.523,-22.433 1.043,-8.906 -1.444,-17.684 -7.006,-24.718 -1.856,-2.349 -3.982,-4.409 -6.32,-6.151 z"
           fill="#000000"
           id="path722" />
        <path
           d="M 91.8097,258.026 C 66.6332,239.277 61.4036,203.54 80.1536,178.362 c 18.75,-25.177 54.4864,-30.406 79.6634,-11.656 25.178,18.75 30.407,54.487 11.657,79.664 -18.75,25.178 -54.487,30.406 -79.6643,11.656 z m 65.7023,-88.224 c -23.47,-17.479 -56.784,-12.604 -74.2627,10.866 -17.4786,23.47 -12.6042,56.784 10.8658,74.263 23.4699,17.478 56.7839,12.604 74.2629,-10.866 17.478,-23.47 12.604,-56.784 -10.866,-74.263 z"
           fill="#000000"
           id="path724" />
      </g>
    </g>
  </g>
  <defs
     id="defs735">
    <clipPath
       id="clip0_187_161">
      <rect
         width="409.41299"
         height="131.153"
         fill="#ffffff"
         transform="rotate(36.6758,-19.8322,-59.834238)"
         id="rect732"
         x="0"
         y="0" />
    </clipPath>
  </defs>
</svg>

<svg width="289" height="350" viewBox="0 0 289 350" fill="none" xmlns="http://www.w3.org/2000/svg">
<g clip-path="url(#clip0_187_161)">
<path d="M157.018 169.845C133.591 152.399 100.461 157.24 83.0146 180.666C82.2325 181.717 81.5113 182.792 80.8186 183.878L51.7769 175.922L42.738 208.915L72.779 217.145C74.1237 231.548 81.3332 245.347 93.8499 254.668C117.269 272.109 150.399 267.268 167.845 243.841L198.018 266.311L249.441 238.675L157.019 169.846L157.018 169.845ZM49.8726 203.627L55.0722 184.154L66.6439 187.243L61.4443 206.716L49.8726 203.627Z" fill="#49B170"/>
<mask id="mask0_187_161" style="mask-type:luminance" maskUnits="userSpaceOnUse" x="42" y="159" width="208" height="108">
<path d="M157.018 169.845C133.591 152.399 100.461 157.24 83.0146 180.666C82.2325 181.717 81.5113 182.792 80.8186 183.878L51.7769 175.922L42.738 208.915L72.779 217.145C74.1237 231.548 81.3332 245.347 93.8499 254.668C117.269 272.109 150.399 267.268 167.845 243.841L198.018 266.311L249.441 238.675L157.019 169.846L157.018 169.845ZM49.8726 203.627L55.0722 184.154L66.6439 187.243L61.4443 206.716L49.8726 203.627Z" fill="white"/>
</mask>
<g mask="url(#mask0_187_161)">
<path d="M200.932 288.938L185.736 259.533L242.952 229.964L288.696 244.537L200.932 288.938ZM190.937 261.19L202.604 283.766L278.537 245.352L243.304 234.127L190.937 261.19Z" fill="black"/>
<path d="M231.664 240.575L192.455 211.376L190.15 214.471L229.358 243.671L231.664 240.575Z" fill="black"/>
<path d="M98.0254 235.373C87.6424 227.64 81.541 214.727 83.1514 200.971C85.5511 180.474 104.179 165.749 124.677 168.148C134.607 169.31 143.489 174.268 149.689 182.113C155.888 189.957 158.662 199.746 157.5 209.674C156.339 219.604 151.379 228.487 143.536 234.686C135.693 240.886 125.905 243.66 115.975 242.497C109.233 241.709 103.115 239.163 98.0254 235.373ZM140.34 178.355C135.675 174.881 130.16 172.676 124.228 171.981C105.844 169.829 89.1367 183.036 86.985 201.42C85.9427 210.326 88.4306 219.105 93.9918 226.139C99.5509 233.172 107.519 237.621 116.424 238.664C125.329 239.706 134.108 237.217 141.143 231.657C148.177 226.097 152.624 218.13 153.667 209.224C154.709 200.319 152.222 191.54 146.661 184.506C144.804 182.157 142.678 180.097 140.34 178.355L140.34 178.355Z" fill="black"/>
<path d="M91.8098 258.026C66.6333 239.277 61.4037 203.54 80.1537 178.363C98.9037 153.185 134.64 147.956 159.818 166.706C184.995 185.456 190.224 221.193 171.474 246.37C152.724 271.548 116.987 276.776 91.8098 258.026ZM157.512 169.802C134.042 152.324 100.728 157.198 83.2494 180.668C65.7708 204.138 70.6452 237.452 94.1153 254.931C117.585 272.409 150.899 267.535 168.378 244.065C185.857 220.595 180.982 187.281 157.512 169.802Z" fill="black"/>
</g>
<path d="M16.0972 205.053L-101.197 117.701C-110.463 110.801 -112.386 97.6501 -105.487 88.3854L-85.4589 61.4923C-69.6684 40.2891 -39.572 35.8855 -18.368 51.6765L13.4233 75.3521C25.909 84.6504 35.1611 97.3555 40.1787 112.094L60.7566 172.532C63.8268 181.549 62.2627 191.492 56.5734 199.132C47.0469 211.924 28.8896 214.581 16.0974 205.054L16.0972 205.053ZM-20.6734 54.7722C-40.1694 40.2532 -67.8442 44.3018 -82.3638 63.7985L-102.392 90.6916C-108.02 98.2498 -106.451 108.978 -98.8924 114.606L18.4013 201.957C29.4862 210.212 45.221 207.91 53.4762 196.825C58.4058 190.206 59.7605 181.588 57.1016 173.775L36.5237 113.337C31.7582 99.3415 22.973 87.2777 11.1165 78.448L-20.6748 54.7724L-20.6734 54.7722Z" fill="black"/>
<mask id="mask1_187_161" style="mask-type:luminance" maskUnits="userSpaceOnUse" x="50" y="168" width="21" height="22">
<path d="M69.5081 171.532C63.8797 166.202 54.1864 167.166 51.3112 174.62C49.0725 180.424 52.6476 186.378 58.1745 188.597C62.5482 190.353 65.3793 186.5 68.4547 182.968C71.7521 179.181 70.4949 174.393 69.5081 171.532C70.4951 174.394 63.8797 166.202 69.5081 171.532Z" fill="white"/>
</mask>
<g mask="url(#mask1_187_161)">
<path d="M16.0971 205.053L-101.197 117.701C-110.463 110.801 -112.386 97.65 -105.487 88.3853L-85.459 61.4922C-69.6686 40.289 -39.5721 35.8854 -18.3681 51.6764L13.4231 75.352C25.9089 84.6504 35.161 97.3554 40.1785 112.094L60.7564 172.532C63.8266 181.549 62.2625 191.492 56.5733 199.132C47.0467 211.924 28.8895 214.581 16.0973 205.054L16.0971 205.053ZM-20.6736 54.7721C-40.1695 40.2531 -67.8443 44.3017 -82.3639 63.7984L-102.392 90.6915C-108.02 98.2497 -106.451 108.978 -98.8926 114.606L18.4012 201.957C29.4861 210.212 45.2209 207.91 53.4761 196.825C58.4057 190.206 59.7604 181.588 57.1015 173.775L36.5236 113.337C31.7581 99.3414 22.9729 87.2777 11.1164 78.4479L-20.6749 54.7723L-20.6736 54.7721Z" fill="black"/>
<path d="M157.018 169.845C133.591 152.399 100.461 157.24 83.0145 180.666C82.2324 181.717 81.5111 182.792 80.8185 183.878L51.7768 175.922L42.7378 208.915L72.7788 217.145C74.1236 231.548 81.3331 245.347 93.8498 254.668C117.269 272.109 150.399 267.268 167.845 243.841L198.017 266.311L249.441 238.674L157.018 169.846L157.018 169.845ZM49.8724 203.627L55.0721 184.153L66.6438 187.243L61.4441 206.716L49.8724 203.627Z" fill="#49B170"/>
<mask id="mask2_187_161" style="mask-type:luminance" maskUnits="userSpaceOnUse" x="42" y="159" width="208" height="108">
<path d="M157.018 169.845C133.591 152.399 100.461 157.24 83.0145 180.666C82.2324 181.717 81.5111 182.792 80.8185 183.878L51.7768 175.922L42.7378 208.915L72.7788 217.145C74.1236 231.548 81.3331 245.347 93.8498 254.668C117.269 272.109 150.399 267.268 167.845 243.841L198.017 266.311L249.441 238.674L157.018 169.846L157.018 169.845ZM49.8724 203.627L55.0721 184.153L66.6438 187.243L61.4441 206.716L49.8724 203.627Z" fill="white"/>
</mask>
<g mask="url(#mask2_187_161)">
<path d="M98.0253 235.373C87.6423 227.64 81.5409 214.727 83.1513 200.971C85.551 180.474 104.179 165.749 124.676 168.148C134.607 169.31 143.489 174.268 149.689 182.113C155.888 189.957 158.662 199.746 157.5 209.674C156.339 219.604 151.379 228.487 143.536 234.686C135.693 240.886 125.905 243.66 115.975 242.497C109.233 241.709 103.115 239.163 98.0253 235.373ZM140.34 178.355C135.675 174.881 130.16 172.676 124.228 171.981C105.844 169.829 89.1366 183.036 86.9849 201.42C85.9426 210.326 88.4305 219.105 93.9917 226.139C99.5508 233.172 107.519 237.62 116.424 238.664C125.329 239.706 134.108 237.217 141.143 231.657C148.177 226.097 152.624 218.13 153.666 209.224C154.709 200.318 152.222 191.54 146.66 184.506C144.804 182.157 142.678 180.097 140.34 178.355L140.34 178.355Z" fill="black"/>
<path d="M91.8097 258.026C66.6332 239.277 61.4036 203.54 80.1536 178.362C98.9036 153.185 134.64 147.956 159.817 166.706C184.995 185.456 190.224 221.193 171.474 246.37C152.724 271.548 116.987 276.776 91.8097 258.026ZM157.512 169.802C134.042 152.323 100.728 157.198 83.2493 180.668C65.7707 204.138 70.6451 237.452 94.1151 254.931C117.585 272.409 150.899 267.535 168.378 244.065C185.856 220.595 180.982 187.281 157.512 169.802Z" fill="black"/>
</g>
</g>
</g>
<defs>
<clipPath id="clip0_187_161">
<rect width="409.413" height="131.153" fill="white" transform="translate(-39.6644) rotate(36.6758)"/>
</clipPath>
</defs>
</svg>
